X:1
T:Title
%%score { ( 1 4 5 ) | ( 2 3 ) }
L:1/8
M:2/4
K:Eb
V:1 treble nm="Grand Piano"
V:4 treble 
V:5 treble 
V:2 bass 
V:3 bass 
V:1
 z4[Q:1/4=92] | [EG]2 [EG]>G | [FA]2 [FA]>A | [GB]2 [GB]>c | z2 z z/ A/ | F2 F>G | E2 D>C | %7
 [DG]4- | [DG]4 | c2 c>c | B2 B>B | [FA]2 [A,FA]2 | G4 | A2 F>G | E2 D>E | C4- | C4 | %17
 [EG]2 [Ec]>c | =B2 c>d | [Ec]2 [FB]2 | [EG]4 | G2 c>c | [FB]2 [FA]>G | [CF]4- | [CF]4 | %25
 [Ec]2 G>c | [Ge]2 [Gd]>c | [G=B]2 [Gc]>d | z2 z z/ c/ | [EG]2 [FA]>F | E2 D>E | C4- | %32
[M:7/16] C/-C/-C/-C-<C |] %33
V:2
 z2 z z/ C/ | C,2 z z/ E/ | C,2 z z/ F/ | C,2 z z/ G/ | C,2 E,2 | [C,C]2 [F,A,C]2 | %6
 [C,C]2 [E,G,]2 | =B,,2 F,2 | z2 z z/ G/ | C,2 [E,G,]2 | D,2 [G,B,]2 | C,2 z z/[K:treble] c/ | %12
 C,2 E,2 | [C,C]2 [F,A,C]2 | [C,E,G,C]2 [=B,,F,G,=B,]2 | C,2 E,2 | z2 z z/ G/ | C,2 z z/ E/ | %18
 =B,,2 [F,G,]2 | C,2 z z/ A/ | C,2 z z/ G/ | C,2 [E,G,]2 | C,2 z z/ E/ | C,2 F,2 | z2 z z/ G/ | %25
 C,2 z z/ E/ | C,2 z z/ G/ | =B,,2 z z/ G/ | C,2 z z/ E/ | [C,E,G,]2 [C,F,A,]2 | %30
 [C,E,G,C]2 [F,G,=B,]2 | [C,E,G,]4- |[M:7/16] [C,E,G,]/-[C,E,G,]/-[C,E,G,]/-[C,E,G,]-<[C,E,G,] |] %33
V:3
 x4 | z2 [E,G,]2 | z2 [F,A,]2 | z2 [E,G,]2 | x4 | x4 | x4 | x4 | F,4 | x4 | x4 | z2 F,2[K:treble] | %12
 x4 | x4 | x4 | x4 | E,4 | z2 [E,G,]2 | x4 | z2 [F,A,]2 | z2 E,2 | x4 | z2 [F,A,]2 | x4 | F,4 | %25
 z2 [E,G,]2 | z2 [E,G,]2 | z2 [F,G,]2 | z2 E,2 | x4 | x4 | x4 |[M:7/16] x7/2 |] %33
V:4
 x4 | x4 | x4 | x4 | [EG]4 | x4 | x4 | z2 G,2 | G,4 | E4 | x4 | x4 | E3- E/-[EG]/ | x4 | x4 | %15
 z2 G,2 | G,4 | x4 | F4 | x4 | z2 G,2 | E4 | x4 | z2 A,2 | A,4 | x4 | x4 | x4 | [Ec]4 | x4 | x4 | %31
 x4 |[M:7/16] x7/2 |] %33
V:5
 x4 | x4 | x4 | x4 | z2 G,2 | x4 | x4 | x4 | x4 | x4 | x4 | x4 | z2 G,2 | x4 | x4 | x4 | x4 | x4 | %18
 x4 | x4 | x4 | x4 | x4 | x4 | x4 | x4 | x4 | x4 | z2 G,2 | x4 | x4 | x4 |[M:7/16] x7/2 |] %33

